!! J.S. Bach; 'Fugue in g minor', "Great G minor"(?) BWV 578 for organ.
!! Encoded from Novello Edition, Book 3, pp.84-87; in four voices.
!! Performed duration: 4:13, tempo: quarter-note equals MM 64.5
!! (Helmut Walcha, organist "The Works of Johann Sebastian Bach",
!! Archive/Deutsche Grammophon, APM 14511)
**kern	**kern	**kern	**kern
*M4/4	*M4/4	*M4/4	*M4/4
*MM65	*MM65	*MM65	*MM65
=1	=1	=1	=1
1r	1r	1r	4g
.	.	.	4dd
.	.	.	4.b-
.	.	.	8a
=2	=2	=2	=2
1r	1r	1r	8g
.	.	.	8b-
.	.	.	8a
.	.	.	8g
.	.	.	8f#
.	.	.	8a
.	.	.	4d
=3	=3	=3	=3
1r	1r	1r	8g
.	.	.	8d
.	.	.	8a
.	.	.	8d
.	.	.	8b-
.	.	.	16a
.	.	.	16g
.	.	.	8a
.	.	.	8d
=4	=4	=4	=4
1r	1r	1r	8g
.	.	.	16d
.	.	.	16g
.	.	.	8a
.	.	.	16d
.	.	.	16a
.	.	.	8b-
.	.	.	16a
.	.	.	16g
.	.	.	16a
.	.	.	16d
.	.	.	16dd
.	.	.	16cc
=5	=5	=5	=5
1r	1r	1r	16b-
.	.	.	16a
.	.	.	16g
.	.	.	16b-
.	.	.	16a
.	.	.	16g
.	.	.	16f#
.	.	.	16a
.	.	.	16g
.	.	.	16d
.	.	.	16g
.	.	.	16a
.	.	.	16b-
.	.	.	16cc
.	.	.	16dd
.	.	.	16een
=6	=6	=6	=6
1r	1r	4d	16ff
.	.	.	16een
.	.	.	16dd
.	.	.	16ff
.	.	4a	16ee
.	.	.	16dd
.	.	.	16cc#
.	.	.	16ee
.	.	4.f	8dd
.	.	.	8a
.	.	.	8dd
.	.	8en	8een
=7	=7	=7	=7
1r	1r	8d	16ff
.	.	.	16gg
.	.	8f	16ff
.	.	.	16gg
.	.	8en	8.ggT
.	.	8d	.
.	.	.	32ff
.	.	.	32gg
.	.	8c#	16aa
.	.	.	16gg
.	.	8e	16aa
.	.	.	16bb-
.	.	4A	16aa
.	.	.	16gg
.	.	.	16ff
.	.	.	16een
=8	=8	=8	=8
1r	1r	8d	16ff
.	.	.	16aa
.	.	8A	16gg
.	.	.	16aa
.	.	8en	16cc#
.	.	.	16aa
.	.	8A	16gg
.	.	.	16aa
.	.	8f	16dd
.	.	.	16aa
.	.	16e	16gg
.	.	16d	16aa
.	.	8e	16cc#
.	.	.	16aa
.	.	8A	16gg
.	.	.	16aa
=9	=9	=9	=9
1r	1r	8d	16ff
.	.	.	16dd
.	.	16A	16cc#
.	.	16d	16dd
.	.	8en	16gg
.	.	.	16dd
.	.	16A	16cc#
.	.	16e	16dd
.	.	8f	16aa
.	.	.	16dd
.	.	16e	16cc#
.	.	16d	16dd
.	.	16e	16gg
.	.	16A	16dd
.	.	16a	16cc#
.	.	16g	16dd
=10	=10	=10	=10
1r	1r	16f	8a
.	.	16en	.
.	.	16d	8ff
.	.	16f	.
.	.	16e	8g
.	.	16d	.
.	.	16c#	8een
.	.	16e	.
.	.	16d	8f
.	.	16A	.
.	.	16d	8a
.	.	16e	.
.	.	16f	8dd
.	.	16g	.
.	.	16a	8ff
.	.	16bn	.
=11	=11	=11	=11
1r	1r	16cc	(8ee-
.	.	16b-	.
.	.	16cc	8aa)
.	.	16dd	.
.	.	16cc	8r
.	.	16b-	.
.	.	16a	8ee-
.	.	16cc	.
.	.	16b-	(8dd
.	.	16a	.
.	.	16b-	8gg)
.	.	16cc	.
.	.	16b-	8r
.	.	16a	.
.	.	16g	8dd
.	.	16b-	.
=12	=12	=12	=12
1r	1r	8a	16cc
.	.	.	16b-
.	.	8g	16cc
.	.	.	16dd
.	.	8f#	16cc
.	.	.	16aa
.	.	8d	16gg
.	.	.	16aa
.	4G	4g	16b-
.	.	.	16gg
.	.	.	16ff#
.	.	.	16gg
.	4d	4r	16aa
.	.	.	16ff#
.	.	.	16een
.	.	.	16ff#
=13	=13	=13	=13
1r	4.B-	8r	2gg
.	.	8d	.
.	.	8g	.
.	8A	8a	.
.	8G	16b-	2r
.	.	16cc	.
.	8B-	16b-	.
.	.	16cc	.
.	8A	8.ccT	.
.	8G	.	.
.	.	32b-	.
.	.	32cc	.
=14	=14	=14	=14
1r	8F#	16dd	2r
.	.	16cc	.
.	8A	16dd	.
.	.	16ee-	.
.	4D	16dd	.
.	.	16cc	.
.	.	16b-	.
.	.	16a	.
.	8G	8d	16b-
.	.	.	16dd
.	8D	8r	16cc
.	.	.	16dd
.	8A	8c	16f#
.	.	.	16dd
.	8D	8r	16cc
.	.	.	16dd
=15	=15	=15	=15
1r	8B-	8d	16g
.	.	.	16dd
.	16A	8r	16cc
.	16G	.	16dd
.	8A	8c	16f#
.	.	.	16dd
.	8D	8r	16cc
.	.	.	16dd
.	8G	16r	4b-
.	.	16g	.
.	16D	16f#	.
.	16G	16g	.
.	8A	16r	4cc
.	.	16g	.
.	16D	16f#	.
.	16A	16g	.
=16	=16	=16	=16
1r	8B-	16r	4dd
.	.	16g	.
.	16A	16f#	.
.	16G	16g	.
.	16A	16r	4cc
.	16D	16g	.
.	16d	16f#	.
.	16c	16g	.
.	16B-	4d	8r
.	16A	.	.
.	16G	.	8b-
.	16B-	.	.
.	16A	4c	8r
.	16G	.	.
.	16F#	.	8a
.	16A	.	.
=17	=17	=17	=17
2r	16G	4B-	8r
.	16D	.	.
.	16G	.	8d
.	16A	.	.
.	16B-	2.r	16g
.	16c	.	16a
.	16d	.	16b-
.	16en	.	16g
4D	16f	.	8a
.	16en	.	.
.	16d	.	8dd
.	16f	.	.
4A	16e	.	8cc#
.	16d	.	.
.	16c#	.	8een
.	16e	.	.
=18	=18	=18	=18
4.F	8d	1r	16aa
.	.	.	16bb-
.	8A	.	16aa
.	.	.	16gg
.	8d	.	16ff
.	.	.	16een
8En	8en	.	16dd
.	.	.	16cc#
8D	16f	.	8dd
.	16g	.	.
8F	16f	.	8r
.	16g	.	.
8E	8.gT	.	8bb-
8D	.	.	8r
.	32f	.	.
.	32g	.	.
=19	=19	=19	=19
8C#	16a	1r	8een
.	16g	.	.
8E	16a	.	8r
.	16b-	.	.
4AA	16a	.	8r
.	16g	.	.
.	16f	.	8aa
.	16en	.	.
8D	16f	.	[2aaT
.	16a	.	.
8AA	16g	.	.
.	16a	.	.
8E	16c#	.	.
.	16a	.	.
8AA	16g	.	.
.	16a	.	.
=20	=20	=20	=20
8F	16d	1r	1aaT_
.	16a	.	.
16En	16g	.	.
16D	16a	.	.
8E	16c#	.	.
.	16a	.	.
8AA	16g	.	.
.	16a	.	.
8D	16f	.	.
.	16d	.	.
16AA	16c#	.	.
16D	16d	.	.
8E	16g	.	.
.	16d	.	.
16AA	16c#	.	.
16E	16d	.	.
=21	=21	=21	=21
8F	16a	1r	2aaT_
.	16d	.	.
16En	16c#	.	.
16D	16d	.	.
8E	16g	.	.
.	16d	.	.
8AA	16c#	.	.
.	16d	.	.
8D	8f	.	16aa]
.	.	.	16gg
8GG	16en	.	16aa
.	16d	.	16bb-
4AA	8.c#T	.	16aa
.	.	.	16gg
.	.	.	16ff
.	16d	.	16een
=22	=22	=22	=22
4DD	16d	8r	2ff
.	16cn	.	.
.	16d	8a	.
.	16en	.	.
4r	16d	8dd	.
.	16c	.	.
.	16B-	8cc	.
.	16A	.	.
2r	16G	[2b-	8r
.	16F	.	.
.	16G	.	8dd
.	16A	.	.
.	16G	.	8gg
.	16F	.	.
.	16E-	.	8ff
.	16D	.	.
=23	=23	=23	=23
1r	16c	8b-]	[2ee-
.	16B-	.	.
.	16c	8g	.
.	16d	.	.
.	16c	8cc	.
.	16B-	.	.
.	16A	8b-	.
.	16G	.	.
.	16F	[2a	8ee-]
.	16E-	.	.
.	16F	.	8cc
.	16G	.	.
.	16F	.	8ff
.	16E-	.	.
.	16D	.	8ee-
.	16C	.	.
=24	=24	=24	=24
1r	16BB-	4a]	[4dd
.	16B-	.	.
.	16c	.	.
.	16d	.	.
.	4e-	2g	16dd]
.	.	.	16gg
.	.	.	16ff#
.	.	.	16gg
.	16r	.	[4cc
.	16A	.	.
.	16B-	.	.
.	16c	.	.
.	4d	4f#	16cc]
.	.	.	16b-
.	.	.	16a
.	.	.	16cc
=25	=25	=25	=25
1r	4G	8g	16b-
.	.	.	16a
.	.	8r	16g
.	.	.	16b-
.	4d	4r	16a
.	.	.	16g
.	.	.	16f#
.	.	.	16a
.	4.B-	2r	16g
.	.	.	16d
.	.	.	16en
.	.	.	16f#
.	.	.	16g
.	.	.	16d
.	8A	.	16g
.	.	.	16a
=26	=26	=26	=26
2r	16G	1r	16b-
.	16B-	.	16g
.	16A	.	16b-
.	16G	.	16cc
.	16F#	.	16dd
.	16G	.	16a
.	16En	.	16dd
.	16F#	.	16cc
8r	16G	.	4.b-
.	16D	.	.
8GG	16E	.	.
.	16F#	.	.
8G	16G	.	.
.	16D	.	.
8Fn	16G	.	8a
.	16A	.	.
=27	=27	=27	=27
8E-	16B-	1r	8g
.	16c	.	.
8r	16B-	.	8b-
.	16c	.	.
8EE-	8.cT	.	8a
8r	.	.	8g
.	32B-	.	.
.	32c	.	.
8DD	16d	.	8f#
.	16c	.	.
8D	16d	.	8a
.	16e-	.	.
[4D	16d	.	4d
.	16c	.	.
.	16B-	.	.
.	16A	.	.
=28	=28	=28	=28
1D_	16B-	1r	8g
.	16d	.	.
.	16c	.	8d
.	16d	.	.
.	16F#	.	8a
.	16d	.	.
.	16c	.	8d
.	16d	.	.
.	16G	.	8b-
.	16d	.	.
.	16c	.	16a
.	16d	.	16g
.	16F#	.	8a
.	16d	.	.
.	16c	.	8d
.	16d	.	.
=29	=29	=29	=29
1D_	16B-	1r	8g
.	16G	.	.
.	16F#	.	16d
.	16G	.	16g
.	16c	.	8a
.	16G	.	.
.	16F#	.	16d
.	16G	.	16a
.	16d	.	8b-
.	16G	.	.
.	16F#	.	16a
.	16G	.	16g
.	16c	.	16a
.	16G	.	16d
.	16F#	.	16dd
.	16G	.	16cc
=30	=30	=30	=30
2D_	8G	1r	16b-
.	.	.	16a
.	8B-	.	16g
.	.	.	16b-
.	16c	.	16a
.	16B-	.	16g
.	16A	.	16f#
.	16c	.	16a
4D]	[4B-	.	16g
.	.	.	16b-
.	.	.	16cc
.	.	.	16dd
[4C	16B-]	.	16ee-
.	16d	.	16b-
.	16c	.	16a
.	16B-	.	16g
=31	=31	=31	=31
4C]	[4A	1r	16f#
.	.	.	16a
.	.	.	16b-
.	.	.	16cc
2BB-	16A]	.	16dd
.	16c	.	16a
.	16B-	.	16g
.	16A	.	16fn
.	[4G	.	16e-
.	.	.	16g
.	.	.	16a
.	.	.	16b-
4AA	16G]	.	16cc
.	16B-	.	16g
.	16A	.	16f
.	16G	.	16e-
=32	=32	=32	=32
8BB-	[4F	1r	16d
.	.	.	16f
8AA	.	.	16g
.	.	.	16a
4GG	8F]	.	16b-
.	.	.	16dd
.	8En	.	16cc
.	.	.	16b-
4FF	8F	.	16a
.	.	.	16cc
.	8E-	.	16dd
.	.	.	16ee-
4r	8D	.	16ff
.	.	.	16gg
.	8C	.	16ff
.	.	.	16ee-
=33	=33	=33	=33
1r	4BB-	4B-	16dd
.	.	.	16ff
.	.	.	16ee-
.	.	.	16dd
.	4r	4f	16cc
.	.	.	16b-
.	.	.	16a
.	.	.	16cc
.	8r	4.d	16b-
.	.	.	16f
.	8c	.	16g
.	.	.	16a
.	8B-	.	16b-
.	.	.	16cc
.	8A	8c	16b-
.	.	.	16cc
=34	=34	=34	=34
1r	2G	8B-	16dd
.	.	.	16een
.	.	8d	16d
.	.	.	16ee
.	.	8c	8.eeT
.	.	8B-	.
.	.	.	32dd
.	.	.	32ee
.	4F	8A	16ff
.	.	.	16ee-
.	.	8c	16ff
.	.	.	16gg
.	8r	4F	16ff
.	.	.	16ee-
.	8f	.	16dd
.	.	.	16cc
=35	=35	=35	=35
1r	[1f	8B-	16dd
.	.	.	16ff
.	.	8F	16ee-
.	.	.	16ff
.	.	8c	16a
.	.	.	16ff
.	.	8F	16ee-
.	.	.	16ff
.	.	8d	16b-
.	.	.	16ff
.	.	16c	16ee-
.	.	16B-	16ff
.	.	8c	16a
.	.	.	16ff
.	.	8F	16ee-
.	.	.	16ff
=36	=36	=36	=36
1r	1f]	8B-	16dd
.	.	.	16b-
.	.	16F	16a
.	.	16B-	16b-
.	.	8c	16ee-
.	.	.	16b-
.	.	16F	16a
.	.	16c	16b-
.	.	8d	16ff
.	.	.	16b-
.	.	16c	16a
.	.	16B-	16b-
.	.	16c	16ee-
.	.	16F	16b-
.	.	16f	16a
.	.	16e-	16b-
=37	=37	=37	=37
1r	2.r	16d	16b-
.	.	16c	16cc
.	.	16B-	16dd
.	.	16d	16b-
.	.	16c	16ee-
.	.	16B-	16dd
.	.	16A	16cc
.	.	16c	16ee-
.	.	(8B-	16dd
.	.	.	16cc
.	.	8g)	16dd
.	.	.	16ee-
.	8r	4r	16dd
.	.	.	16cc
.	8G	.	16b-
.	.	.	16dd
=38	=38	=38	=38
1r	(8A	1r	16cc
.	.	.	16b-
.	8f')	.	16cc
.	.	.	16dd
.	8r	.	16cc
.	.	.	16b-
.	8F	.	16a
.	.	.	16cc
.	8G	.	16b-
.	.	.	16a
.	8f	.	16b-
.	.	.	16cc
.	8c	.	16b-
.	.	.	16a
.	8en	.	16g
.	.	.	16b-
=39	=39	=39	=39
1r	16f	1r	(8a
.	16e-	.	.
.	16f	.	8ff)
.	16g	.	.
.	16f	.	8r
.	16e-	.	.
.	16d	.	8a-
.	16f	.	.
.	16e-	.	(8g
.	16d	.	.
.	16e-	.	8ee-)
.	16f	.	.
.	16e-	.	8r
.	16d	.	.
.	16c	.	8g
.	16e-	.	.
=40	=40	=40	=40
1r	16d	1r	(8f
.	16c	.	.
.	16d	.	8dd)
.	16e-	.	.
.	16d	.	8r
.	16c	.	.
.	16B-	.	8f
.	16d	.	.
.	16c	.	16e-
.	16B-	.	16g
.	16c	.	16cc
.	16d	.	16b-
.	16c	.	16an
.	16B-	.	16g
.	16A	.	16f
.	16c	.	16e-
=41	=41	=41	=41
4BB-	16B-	1r	16d
.	16c	.	16e-
.	16d	.	16f
.	16B-	.	16g
4F	16c	.	16a
.	16d	.	16b-
.	16e-	.	16cc
.	16c	.	16a
4.D	16d	.	16b-
.	16c	.	16f
.	16B-	.	16g
.	16c	.	16a
.	16d	.	16b-
.	16e-	.	16cc
8C	16d	.	16b-
.	16e-	.	16cc
=42	=42	=42	=42
8BB-	16f	1r	16dd
.	16g	.	16een
8D	16f	.	16dd
.	16g	.	16ee
8C	8.gT	.	8.eeT
8BB-	.	.	.
.	32f	.	32dd
.	32g	.	32ee
8AA	16a	.	16ff
.	16g	.	16ee-
8C	16a	.	16ff
.	16b-	.	16gg
4FF	16a	.	8ff
.	16g	.	.
.	16f	.	8ff
.	16e-	.	.
=43	=43	=43	=43
8BB-	16d	1r	[1ffT
.	16f	.	.
8FF	16e-	.	.
.	16f	.	.
8C	16A	.	.
.	16f	.	.
8FF	16e-	.	.
.	16f	.	.
8D	16B-	.	.
.	16f	.	.
16C	16e-	.	.
16BB-	16f	.	.
8C	16A	.	.
.	16f	.	.
8FF	16e-	.	.
.	16f	.	.
=44	=44	=44	=44
8BB-	16d	1r	1ffT_
.	16b-	.	.
16FF	16a	.	.
16BB-	16b-	.	.
8C	16e-	.	.
.	16b-	.	.
16FF	16a	.	.
16C	16b-	.	.
8D	16f	.	.
.	16b-	.	.
16C	16a	.	.
16BB-	16b-	.	.
8C	16e-	.	.
.	16b-	.	.
8FF	16a	.	.
.	16b-	.	.
=45	=45	=45	=45
8D	16b-	2r	16ff]
.	16dd	.	16ee-
8E-	16cc	.	16ff
.	16b-	.	16gg
8F	16a	.	8.cc
.	16g	.	.
8FF	16f	.	.
.	16e-	.	16aa
4BB-	[2d	8r	16bb-
.	.	.	16aa
.	.	8f	16bb-
.	.	.	16cc
4r	.	8b-	16bb-
.	.	.	16aa
.	.	8a	16gg
.	.	.	16ff
=46	=46	=46	=46
4C	8d]	[2g	16ee-
.	.	.	16dd
.	8G	.	16ee-
.	.	.	16ff
4r	8c	.	16ee-
.	.	.	16dd
.	8B-	.	16cc
.	.	.	16b-
4FF	[2A	8g]	16aa
.	.	.	16gg
.	.	8c	16aa
.	.	.	16bb-
4r	.	8a	16aa
.	.	.	16gg
.	.	8g	16ff
.	.	.	16ee-
=47	=47	=47	=47
4BB-	8A]	[2f	16dd
.	.	.	16cc
.	8F	.	16dd
.	.	.	16ee-
4r	8B-	.	16dd
.	.	.	16cc
.	8A	.	16b-
.	.	.	16a
4EE-	[2G	8f]	16gg
.	.	.	16ff
.	.	8B-	16gg
.	.	.	16aa-
4r	.	8g	16gg
.	.	.	16ff
.	.	8f	16ee-
.	.	.	16dd
=48	=48	=48	=48
4AA-	8G]	[2e-	16cc
.	.	.	16bn
.	8E-	.	16cc
.	.	.	16dd
4r	8A-	.	16cc
.	.	.	16dd
.	8G	.	16ee-
.	.	.	16cc
4DD	4F	16e-]	[4ff
.	.	16e-	.
.	.	16d	.
.	.	16c	.
4GG	[4G	4Bn	16ff]
.	.	.	16aa-
.	.	.	16gg
.	.	.	16ff
=49	=49	=49	=49
4CC	16G]	4c	[2ee-
.	16G	.	.
.	16An	.	.
.	16Bn	.	.
4r	16c	4r	.
.	16d	.	.
.	16e-	.	.
.	16c	.	.
4FF	2A-	8r	16ee-]
.	.	.	16cc
.	.	8c	16dd
.	.	.	16ee-
4r	.	8a-	16ff
.	.	.	16gg
.	.	[8f	16aa-
.	.	.	16ff
=50	=50	=50	=50
1GG	8G	4f_	16bn
.	.	.	16cc
.	8An	.	16dd
.	.	.	16b
.	4Bn	16f]	8g
.	.	16f	.
.	.	16e-	8r
.	.	16d	.
.	8c	16e-	4cc
.	.	16d	.
.	8r	16c	.
.	.	16e-	.
.	4r	16d	4gg
.	.	16c	.
.	.	16Bn	.
.	.	16d	.
=51	=51	=51	=51
8CC	1r	16c	4.ee-
.	.	16G	.
8GG	.	16c	.
.	.	16d	.
8C	.	16e-	.
.	.	16f	.
8D	.	16e-	8dd
.	.	16f	.
4E-	.	16g	8cc
.	.	16e-	.
.	.	16c	8ee-
.	.	16g	.
4F	.	16a-	8dd
.	.	16f	.
.	.	16g	8cc
.	.	16a	.
=52	=52	=52	=52
[4G	1r	16d	8bn
.	.	16e-	.
.	.	16d	8dd
.	.	16c	.
16G]	.	8Bn	4g
16G	.	.	.
16F	.	8d	.
16G	.	.	.
16E-	.	[2GT	8cc
16G	.	.	.
16F	.	.	8g
16G	.	.	.
16BBn	.	.	8dd
16G	.	.	.
16F	.	.	8g
16G	.	.	.
=53	=53	=53	=53
16C	1r	1GT_	8ee-
16G	.	.	.
16F	.	.	16dd
16G	.	.	16cc
16BBn	.	.	8dd
16G	.	.	.
16F	.	.	8g
16G	.	.	.
16E-	.	.	8cc
16c	.	.	.
16Bn	.	.	16g
16c	.	.	16cc
16F	.	.	8dd
16c	.	.	.
16B	.	.	16g
16c	.	.	16dd
=54	=54	=54	=54
16G	1r	2GT_	8ee-
16c	.	.	.
16Bn	.	.	16dd
16c	.	.	16cc
16G	.	.	16dd
16B	.	.	16g
16A	.	.	16gg
16B	.	.	16ff
8C	.	8G]	16ee-
.	.	.	16dd
8E-	.	8g	16cc
.	.	.	16ee-
8F	.	16f	16dd
.	.	16e-	16cc
8G	.	16d	16bn
.	.	16f	16dd
=55	=55	=55	=55
4C	8r	4e-	16cc
.	.	.	16gg
.	8G	.	16ee-
.	.	.	16gg
4r	8E-	4r	16cc
.	.	.	16ee-
.	8C	.	16g
.	.	.	16b-
2r	4F	8r	16a
.	.	.	16cc
.	.	8c	16a
.	.	.	16cc
.	4r	8A	16f
.	.	.	16a
.	.	8F	16c
.	.	.	16e-
=56	=56	=56	=56
1r	8r	[2B-	16d
.	.	.	16ff
.	8F	.	16dd
.	.	.	16ff
.	8D	.	16b-
.	.	.	16dd
.	8BB-	.	16f
.	.	.	16a
.	4E-	8B-]	16g
.	.	.	16b-
.	.	8B-	16g
.	.	.	16b-
.	4r	8G	16e-
.	.	.	16g
.	.	8E-	16B-
.	.	.	16d
=57	=57	=57	=57
1r	8r	[2A	16c
.	.	.	16ee-
.	8E-	.	16cc
.	.	.	16ee-
.	8C	.	16a
.	.	.	16cc
.	8AA	.	16en
.	.	.	16g
.	4D	8A]	16f#
.	.	.	16a
.	.	8A	16f#
.	.	.	16a
.	4r	8F#	16d
.	.	.	16f#
.	.	8D	16A
.	.	.	16c
=58	=58	=58	=58
1r	16GG	4G	8B-
.	16BB-	.	.
.	16AA	.	8g
.	16GG	.	.
.	16D	4r	8A
.	16AA	.	.
.	16DD	.	8f#
.	16C	.	.
.	8BB-	16G	4g
.	.	16B-	.
.	8D	16A	.
.	.	16G	.
.	8FF#	16d	4r
.	.	16A	.
.	8D	16D	.
.	.	16c	.
=59	=59	=59	=59
1r	4G	8B-	16g
.	.	.	16b-
.	.	8d	16a
.	.	.	16g
.	4F#	8A	16dd
.	.	.	16a
.	.	[8d	16d
.	.	.	16cc
.	4G	8d]	16b-
.	.	.	16dd
.	.	8g	16cc
.	.	.	16b-
.	4A	8c	16ff
.	.	.	16cc
.	.	[8fn	16fn
.	.	.	16ee-
=60	=60	=60	=60
1r	4B-	8f]	16dd
.	.	.	16ff
.	.	8f	16ee-
.	.	.	16dd
.	4Bn	8d	16gg
.	.	.	16dd
.	.	[8g	16g
.	.	.	16ff
.	4c	8g]	16een
.	.	.	16gg
.	.	8g	16ff
.	.	.	16ee-
.	4c#	8en	16aa
.	.	.	16ee
.	.	[8a	16a
.	.	.	16gg
=61	=61	=61	=61
1r	4d	16a]	4ff#
.	.	16ee-	.
.	.	16dd	.
.	.	16cc	.
.	8en	16b-	8gg
.	.	16dd	.
.	8f#	16a	8aa
.	.	16dd	.
.	4g	16g	[2bb-
.	.	16aa-	.
.	.	16gg	.
.	.	16ff#	.
.	8an	16gg	.
.	.	16ffn	.
.	8b-	16ee-	.
.	.	16dd	.
=62	=62	=62	=62
1r	16cc	2ee-	4bb-]
.	16g	.	.
.	16f	.	.
.	16e-	.	.
.	16cc	.	2aa
.	16a	.	.
.	16f	.	.
.	16a	.	.
.	16B-	2dd	.
.	16f	.	.
.	16e-	.	.
.	16d	.	.
.	16b-	.	[4gg
.	16g	.	.
.	16e-	.	.
.	16g	.	.
=63	=63	=63	=63
2r	16A	2cc	4gg]
.	16e-	.	.
.	16d	.	.
.	16c	.	.
.	16a	.	4ff#
.	16f#	.	.
.	16d	.	.
.	16f#	.	.
4G	16G	16b-	4gg
.	16B-	16dd	.
.	16d	16cc	.
.	16g	16b-	.
4d	16f#	16a	4r
.	16g	16b-	.
.	16en	16g	.
.	16f#	16a	.
=64	=64	=64	=64
4.B-	4.g	16b-	8r
.	.	16cc	.
.	.	16b-	8dd
.	.	16cc	.
.	.	16dd	8gg
.	.	16ee-	.
8A	8f#	16dd	8aa
.	.	16cc	.
8G	4g	8b-	16bb-
.	.	.	16aa
8B-	.	8dd	16gg
.	.	.	16aa
8A	8a	8cc	16ff#
.	.	.	16gg
8G	8d	8b-	16ff#
.	.	.	16gg
=65	=65	=65	=65
8F#	4d	4a	16aa
.	.	.	16gg
8A	.	.	16ff#
.	.	.	16een
4D	8r	8r	16dd
.	.	.	16cc
.	8F#	8d	16b-
.	.	.	16a
8G	8G	[2dT	16b-
.	.	.	16dd
8D	8r	.	16cc
.	.	.	16dd
8A	8c	.	16f#
.	.	.	16dd
8D	8r	.	16cc
.	.	.	16dd
=66	=66	=66	=66
8B-	8B-	1dT_	16g
.	.	.	16dd
16A	8r	.	16cc
16G	.	.	16dd
8A	8c	.	16f#
.	.	.	16dd
8D	8r	.	16cc
.	.	.	16dd
8D	8B-	.	16b-
.	.	.	16g
16D	8r	.	16f#
16G	.	.	16g
8A	8A	.	16cc
.	.	.	16g
16D	8r	.	16f#
16A	.	.	16g
=67	=67	=67	=67
8B-	8G	2dT_	16dd
.	.	.	16g
16A	8r	.	16f#
16G	.	.	16g
8A	8A	.	16cc
.	.	.	16g
8D	8r	.	16f#
.	.	.	16g
8G	8G	8d]	8b-
8E-	8B-	8e-	8gg
8C	8c	8e-	8a
8D	8A	8d	8ff#
=68	=68	=68	=68
1GG;	1Bn;	1d;	1gg;
==	==	==	==
*-	*-	*-	*-
